pix_core/e/decrease_indent.svg

<!DOCTYPE svg PUBLIC "-//W3C//DTD SVG 1.1//EN" "http://www.w3.org/Graphics/SVG/1.1/DTD/svg11.dtd" [
	<!ENTITY ns_flows "http://ns.adobe.com/Flows/1.0/">
]><svg xmlns="http://www.w3.org/2000/svg" width="16" height="16" viewBox="0 -1 16 16" preserveAspectRatio="xMinYMid meet" overflow="visible" enable-background="new 0 -1 16 16"><path d="M0 12h16v2h-16v-2zm6-3h10v2h-10v-2zm0-3h10v2h-10v-2zm0-3h10v2h-10v-2zm10-1v-2h-16v2h16zm-12 2v6l-4-3 4-3z" fill="#999"/></svg>

<!DOCTYPE svg PUBLIC "-//W3C//DTD SVG 1.1//EN" "http://www.w3.org/Graphics/SVG/1.1/DTD/svg11.dtd" [
	<!ENTITY ns_flows "http://ns.adobe.com/Flows/1.0/">
]><svg xmlns="http://www.w3.org/2000/svg" width="16" height="16" viewBox="0 -1 16 16" preserveAspectRatio="xMinYMid meet" overflow="visible"><path d="M0 12h16v2H0v-2zm6-3h10v2H6V9zm0-3h10v2H6V6zm0-3h10v2H6V3zm10-1V0H0v2h16zM4 4v6L0 7l4-3z" fill="#999"/></svg>
